X:7865
T:Theme
T:From sonata in A major for piano
C:Wolfgang Amadeus Mozart
O:Austria
A:Vienna
Z:Transcribed by Frank Nordberg - http://www.musicaviva.com
F:http://abc.musicaviva.com/tunes/mozart-wolfgang-amadeus/mozart-sontheme-a/mozart-sontheme-a-1.abc
M:3/4
L:1/4
Q:1/4=122
K:A
"A"c>dc|"A"e2e|"E7"B>cB|"E7"d2d|
"D"A2A|"E"B2B|"A"c2e/d/|"A/C"c2"E"B|
"A"A2A|"A"c>dc|"E7"G2G|"E7"B>cB|
"A"A2"E"G|"A"A>GF|"A/C"E2"E7"G|"A"A3:|
W:
W:
W:  From Musica Viva - http://www.musicaviva.com
W:  the Internet center for free sheet music downloads.
